svgs/pixeldroid.svg

<svg width="192" height="192" viewBox="0 0 50.8 50.8" xml:space="preserve" xmlns="http://www.w3.org/2000/svg"><defs><clipPath id="a"><path d="M0 .112h50v49.776H0Z"/></clipPath><clipPath id="b"><path d="M0 .112h50v49.776H0Z"/></clipPath><clipPath id="c"><path d="M0 .112h50v49.776H0Z"/></clipPath><clipPath id="d"><path d="M0 .112h50v49.776H0Z"/></clipPath><clipPath id="e"><path d="M0 .112h50v49.776H0Z"/></clipPath><clipPath id="f"><path d="M0 .112h50v49.776H0Z"/></clipPath><clipPath id="g"><path d="M0 .112h50v49.776H0Z"/></clipPath><clipPath id="h"><path d="M0 .112h50v49.776H0Z"/></clipPath><clipPath id="i"><path d="M0 .112h50v49.776H0Z"/></clipPath><clipPath id="j"><path d="M0 .112h50v49.776H0Z"/></clipPath><clipPath id="k"><path d="M0 .112h50v49.776H0Z"/></clipPath><clipPath id="l"><path d="M0 .112h50v49.776H0Z"/></clipPath></defs><g style="stroke-width:3.79003;stroke-dasharray:none" stroke="#00000000" stroke-width="1"><path clip-path="url(#a)" d="M24.992 24.958c-4.066-5.562-11.842-6.837-17.367-2.847-5.526 3.99-6.709 11.734-2.643 17.297l.307.42c-6.63-8.672-6.957-20.838-.346-29.753l.117-.156c4.096-5.442 11.878-6.487 17.381-2.334 5.504 4.153 6.646 11.931 2.551 17.373z" fill="none" style="stroke-width:3.79003;stroke-dasharray:none" transform="matrix(.83775 0 0 .83775 4.463 4.093)"/><path clip-path="url(#b)" d="M24.992 24.958c-6.473 2.19-9.878 9.223-7.605 15.709 2.273 6.486 9.363 9.969 15.836 7.78l.428-.145c-8.049 2.88-17.428 1.495-24.513-4.45a25.338 25.338 0 0 1-3.849-4.024l-.307-.42C.916 33.845 2.099 26.101 7.625 22.111c5.525-3.99 13.301-2.715 17.367 2.847z" fill="none" style="stroke-width:3.79003;stroke-dasharray:none" transform="matrix(.83775 0 0 .83775 4.463 4.093)"/><path clip-path="url(#c)" d="M24.992 24.958c.041 6.846 5.637 12.429 12.497 12.471 6.86.041 12.388-5.474 12.346-12.32l-.001-.157c.073 5.679-1.798 11.389-5.714 16.057a24.322 24.322 0 0 1-10.469 7.293l-.428.145c-6.473 2.189-13.563-1.294-15.836-7.78-2.273-6.486 1.132-13.519 7.605-15.709Z" fill="none" style="stroke-width:3.79003;stroke-dasharray:none" transform="matrix(.83775 0 0 .83775 4.463 4.093)"/><path clip-path="url(#d)" d="M24.992 24.958c6.537 2.155 13.523-1.365 15.604-7.863 2.08-6.498-1.533-13.512-8.071-15.667l-.535-.176a25.149 25.149 0 0 1 8.855 4.813 25.039 25.039 0 0 1 8.989 18.887l.001.157c.042 6.846-5.486 12.361-12.346 12.32-6.86-.042-12.456-5.625-12.497-12.471Z" fill="none" style="stroke-width:3.79003;stroke-dasharray:none" transform="matrix(.83775 0 0 .83775 4.463 4.093)"/><path clip-path="url(#e)" d="M24.992 24.958c4.095-5.442 2.953-13.22-2.551-17.373C16.938 3.432 9.156 4.477 5.06 9.919l-.117.156c.293-.395.6-.785.921-1.167 6.528-7.78 16.895-10.467 26.126-7.656l.535.176c6.538 2.155 10.151 9.169 8.071 15.667-2.081 6.498-9.067 10.018-15.604 7.863z" fill="none" style="stroke-width:3.79003;stroke-dasharray:none" transform="matrix(.83775 0 0 .83775 4.463 4.093)"/><path clip-path="url(#f)" d="M24.992 24.958c4.095-5.442 2.953-13.22-2.551-17.373C16.938 3.432 9.156 4.477 5.06 9.919l-.117.156c.293-.395.6-.785.921-1.167 6.528-7.78 16.895-10.467 26.126-7.656l.535.176c6.538 2.155 10.151 9.169 8.071 15.667-2.081 6.498-9.067 10.018-15.604 7.863z" fill="none" style="stroke-width:3.79003;stroke-dasharray:none" transform="matrix(.83775 0 0 .83775 4.463 4.093)"/><path clip-path="url(#g)" d="m32.334 1.365.191.063c6.538 2.155 10.151 9.169 8.071 15.667-2.081 6.498-9.067 10.018-15.604 7.863a12.211 12.211 0 0 0 1.477-2.551c3.821.782 7.916-.48 10.575-3.648 3.88-4.625 3.231-11.559-1.451-15.487a11.177 11.177 0 0 0-3.259-1.907Z" fill="none" stroke-opacity=".505" style="stroke-width:3.79003;stroke-dasharray:none" transform="matrix(.83775 0 0 .83775 4.463 4.093)"/><path clip-path="url(#h)" d="M49.8 24.749v.201c-.03 6.883-5.585 12.487-12.407 12.517-6.823.029-12.33-5.527-12.3-12.411.954.328 1.921.531 2.883.617.437 3.876 2.903 7.38 6.738 8.929 5.597 2.262 11.99-.499 14.28-6.165.489-1.211.751-2.456.806-3.688z" fill="none" stroke-opacity=".544" style="stroke-width:3.79003;stroke-dasharray:none" transform="matrix(.83775 0 0 .83775 4.463 4.093)"/><path clip-path="url(#i)" d="m33.391 48.282-.191.064c-6.518 2.213-13.625-1.214-15.874-7.655-2.249-6.442 1.212-13.458 7.73-15.671 0 1.009.124 1.989.355 2.927-3.522 1.675-6.033 5.148-6.249 9.278-.316 6.028 4.375 11.175 10.479 11.494a11.174 11.174 0 0 0 3.75-.437z" fill="none" stroke-opacity=".562" style="stroke-width:3.79003;stroke-dasharray:none" transform="matrix(.83775 0 0 .83775 4.463 4.093)"/><path clip-path="url(#j)" d="m4.863 39.324-.115-.166C.824 33.503 2.16 25.727 7.732 21.79c5.572-3.938 13.27-2.545 17.194 3.11-.969.279-1.878.667-2.716 1.149-2.58-2.924-6.611-4.381-10.641-3.45-5.881 1.357-9.535 7.286-8.16 13.241a11.163 11.163 0 0 0 1.454 3.484z" fill="none" stroke-opacity=".584" style="stroke-width:3.79003;stroke-dasharray:none" transform="matrix(.83775 0 0 .83775 4.463 4.093)"/><path clip-path="url(#k)" d="m4.972 10.24.122-.16C9.26 4.601 17.068 3.468 22.535 7.55c5.466 4.083 6.52 11.834 2.354 17.314a12.213 12.213 0 0 0-1.931-2.228c1.984-3.358 2.123-7.641-.007-11.186-3.109-5.174-9.876-6.817-15.115-3.67a11.186 11.186 0 0 0-2.864 2.46Z" fill="none" stroke-opacity=".18" style="stroke-width:3.79003;stroke-dasharray:none" transform="matrix(.83775 0 0 .83775 4.463 4.093)"/><path clip-path="url(#l)" d="M23.033 30.273h4.545c4.282 0 7.752-3.364 7.752-7.513 0-4.15-3.47-7.513-7.752-7.513h-6.56c-2.469 0-4.472 1.94-4.472 4.334v16.87z" fill="#fff" style="fill:none;fill-opacity:1;stroke:#000;stroke-width:1.71923475;stroke-linecap:round;stroke-linejoin:round;stroke-dasharray:none;stroke-opacity:1" transform="translate(-22.501 -22.337) scale(1.84675)"/></g></svg>

<?xml version="1.0" encoding="UTF-8" standalone="no"?>
<!-- Created with Inkscape (http://www.inkscape.org/) -->

<svg width="192" height="192" viewBox="0 0 50.799999 50.8" version="1.1" id="svg5" xml:space="preserve"
    xmlns="http://www.w3.org/2000/svg"><defs
     id="defs2"><clipPath
       id="clip_path"><path
         d="M 0 0.112 L 50 0.112 L 50 49.888 L 0 49.888 Z"
         id="path132" /></clipPath><clipPath
       id="clip_path_1"><path
         d="M 0 0.112 L 50 0.112 L 50 49.888 L 0 49.888 Z"
         id="path135" /></clipPath><clipPath
       id="clip_path_2"><path
         d="M 0 0.112 L 50 0.112 L 50 49.888 L 0 49.888 Z"
         id="path138" /></clipPath><clipPath
       id="clip_path_3"><path
         d="M 0 0.112 L 50 0.112 L 50 49.888 L 0 49.888 Z"
         id="path141" /></clipPath><clipPath
       id="clip_path_4"><path
         d="M 0 0.112 L 50 0.112 L 50 49.888 L 0 49.888 Z"
         id="path144" /></clipPath><clipPath
       id="clip_path_5"><path
         d="M 0 0.112 L 50 0.112 L 50 49.888 L 0 49.888 Z"
         id="path147" /></clipPath><clipPath
       id="clip_path_6"><path
         d="M 0 0.112 L 50 0.112 L 50 49.888 L 0 49.888 Z"
         id="path150" /></clipPath><clipPath
       id="clip_path_7"><path
         d="M 0 0.112 L 50 0.112 L 50 49.888 L 0 49.888 Z"
         id="path153" /></clipPath><clipPath
       id="clip_path_8"><path
         d="M 0 0.112 L 50 0.112 L 50 49.888 L 0 49.888 Z"
         id="path156" /></clipPath><clipPath
       id="clip_path_9"><path
         d="M 0 0.112 L 50 0.112 L 50 49.888 L 0 49.888 Z"
         id="path159" /></clipPath><clipPath
       id="clip_path_10"><path
         d="M 0 0.112 L 50 0.112 L 50 49.888 L 0 49.888 Z"
         id="path162" /></clipPath><clipPath
       id="clip_path_11"><path
         d="M 0 0.112 L 50 0.112 L 50 49.888 L 0 49.888 Z"
         id="path165" /></clipPath><clipPath
       id="clip_path_12"><path
         d="M 0 0.112 L 50 0.112 L 50 49.888 L 0 49.888 Z"
         id="path168" /></clipPath><clipPath
       id="clip_path_13"><path
         d="M 0 0.112 L 50 0.112 L 50 49.888 L 0 49.888 Z"
         id="path171" /></clipPath><clipPath
       id="clip_path_14"><path
         d="M 0 0.112 L 50 0.112 L 50 49.888 L 0 49.888 Z"
         id="path174" /></clipPath><clipPath
       id="clip_path_15"><path
         d="M 0 0.112 L 50 0.112 L 50 49.888 L 0 49.888 Z"
         id="path177" /></clipPath><clipPath
       id="clip_path_16"><path
         d="M 0 0.112 L 50 0.112 L 50 49.888 L 0 49.888 Z"
         id="path180" /></clipPath><clipPath
       id="clip_path_17"><path
         d="M 0 0.112 L 50 0.112 L 50 49.888 L 0 49.888 Z"
         id="path183" /></clipPath></defs><g
     id="layer1"><g
       id="group"
       transform="matrix(0.83775278,0,0,0.83775278,4.4631023,4.0932283)"
       style="stroke-width:3.79003;stroke-dasharray:none"><path
         id="path"
         clip-path="url(#clip_path)"
         d="M 24.992,24.958 C 20.926,19.396 13.15,18.121 7.625,22.111 2.099,26.101 0.916,33.845 4.982,39.408 l 0.307,0.42 C -1.341,31.156 -1.668,18.99 4.943,10.075 L 5.06,9.919 C 9.156,4.477 16.938,3.432 22.441,7.585 c 5.504,4.153 6.646,11.931 2.551,17.373 z"
         fill="none"
         stroke="#00000000"
         stroke-width="1"
         fill-rule="evenodd"
         style="stroke-width:3.79003;stroke-dasharray:none" /><path
         id="path_1"
         clip-path="url(#clip_path_1)"
         d="m 24.992,24.958 c -6.473,2.19 -9.878,9.223 -7.605,15.709 2.273,6.486 9.363,9.969 15.836,7.78 l 0.428,-0.145 C 25.602,51.182 16.223,49.797 9.138,43.852 7.681,42.629 6.397,41.278 5.289,39.828 L 4.982,39.408 C 0.916,33.845 2.099,26.101 7.625,22.111 c 5.525,-3.99 13.301,-2.715 17.367,2.847 z"
         fill="none"
         stroke="#00000000"
         stroke-width="1"
         fill-rule="evenodd"
         style="stroke-width:3.79003;stroke-dasharray:none" /><path
         id="path_2"
         clip-path="url(#clip_path_2)"
         d="m 24.992,24.958 c 0.041,6.846 5.637,12.429 12.497,12.471 6.86,0.041 12.388,-5.474 12.346,-12.32 l -10e-4,-0.157 c 0.073,5.679 -1.798,11.389 -5.714,16.057 -2.884,3.436 -6.516,5.879 -10.469,7.293 l -0.428,0.145 C 26.75,50.636 19.66,47.153 17.387,40.667 15.114,34.181 18.519,27.148 24.992,24.958 Z"
         fill="none"
         stroke="#00000000"
         stroke-width="1"
         fill-rule="evenodd"
         style="stroke-width:3.79003;stroke-dasharray:none" /><path
         id="path_3"
         clip-path="url(#clip_path_3)"
         d="M 24.992,24.958 C 31.529,27.113 38.515,23.593 40.596,17.095 42.676,10.597 39.063,3.583 32.525,1.428 L 31.99,1.252 c 3.15,0.959 6.168,2.558 8.855,4.813 5.839,4.899 8.899,11.87 8.989,18.887 l 10e-4,0.157 C 49.877,31.955 44.349,37.47 37.489,37.429 30.629,37.387 25.033,31.804 24.992,24.958 Z"
         fill="none"
         stroke="#00000000"
         stroke-width="1"
         fill-rule="evenodd"
         style="stroke-width:3.79003;stroke-dasharray:none" /><path
         id="path_4"
         clip-path="url(#clip_path_4)"
         d="M 24.992,24.958 C 29.087,19.516 27.945,11.738 22.441,7.585 16.938,3.432 9.156,4.477 5.06,9.919 L 4.943,10.075 C 5.236,9.68 5.543,9.29 5.864,8.908 12.392,1.128 22.759,-1.559 31.99,1.252 l 0.535,0.176 c 6.538,2.155 10.151,9.169 8.071,15.667 -2.081,6.498 -9.067,10.018 -15.604,7.863 z"
         fill="none"
         stroke="#00000000"
         stroke-width="1"
         fill-rule="evenodd"
         style="stroke-width:3.79003;stroke-dasharray:none" /><path
         id="path_5"
         clip-path="url(#clip_path_5)"
         d="M 24.992,24.958 C 29.087,19.516 27.945,11.738 22.441,7.585 16.938,3.432 9.156,4.477 5.06,9.919 L 4.943,10.075 C 5.236,9.68 5.543,9.29 5.864,8.908 12.392,1.128 22.759,-1.559 31.99,1.252 l 0.535,0.176 c 6.538,2.155 10.151,9.169 8.071,15.667 -2.081,6.498 -9.067,10.018 -15.604,7.863 z"
         fill="none"
         fill-opacity="0.1"
         stroke="#00000000"
         stroke-width="1"
         fill-rule="evenodd"
         style="stroke-width:3.79003;stroke-dasharray:none" /><path
         id="path_6"
         clip-path="url(#clip_path_6)"
         d="m 32.334,1.365 0.191,0.063 c 6.538,2.155 10.151,9.169 8.071,15.667 -2.081,6.498 -9.067,10.018 -15.604,7.863 0.606,-0.806 1.098,-1.662 1.477,-2.551 3.821,0.782 7.916,-0.48 10.575,-3.648 C 40.924,14.134 40.275,7.2 35.593,3.272 34.592,2.433 33.489,1.798 32.334,1.365 Z"
         fill="none"
         fill-opacity="0.504911"
         stroke="#00000000"
         stroke-opacity="0.504911"
         stroke-width="1"
         fill-rule="evenodd"
         style="stroke-width:3.79003;stroke-dasharray:none" /><path
         id="path_8"
         clip-path="url(#clip_path_8)"
         d="m 49.8,24.749 v 0.201 c -0.03,6.883 -5.585,12.487 -12.407,12.517 -6.823,0.029 -12.33,-5.527 -12.3,-12.411 0.954,0.328 1.921,0.531 2.883,0.617 0.437,3.876 2.903,7.38 6.738,8.929 5.597,2.262 11.99,-0.499 14.28,-6.165 0.489,-1.211 0.751,-2.456 0.806,-3.688 z"
         fill="none"
         fill-opacity="0.544252"
         stroke="#00000000"
         stroke-opacity="0.544252"
         stroke-width="1"
         fill-rule="evenodd"
         style="stroke-width:3.79003;stroke-dasharray:none" /><path
         id="path_10"
         clip-path="url(#clip_path_10)"
         d="M 33.391,48.282 33.2,48.346 c -6.518,2.213 -13.625,-1.214 -15.874,-7.655 -2.249,-6.442 1.212,-13.458 7.73,-15.671 0,1.009 0.124,1.989 0.355,2.927 -3.522,1.675 -6.033,5.148 -6.249,9.278 -0.316,6.028 4.375,11.175 10.479,11.494 1.304,0.069 2.567,-0.089 3.75,-0.437 z"
         fill="none"
         fill-opacity="0.562221"
         stroke="#00000000"
         stroke-opacity="0.562221"
         stroke-width="1"
         fill-rule="evenodd"
         style="stroke-width:3.79003;stroke-dasharray:none" /><path
         id="path_12"
         clip-path="url(#clip_path_12)"
         d="M 4.863,39.324 4.748,39.158 C 0.824,33.503 2.16,25.727 7.732,21.79 c 5.572,-3.938 13.27,-2.545 17.194,3.11 -0.969,0.279 -1.878,0.667 -2.716,1.149 -2.58,-2.924 -6.611,-4.381 -10.641,-3.45 -5.881,1.357 -9.535,7.286 -8.16,13.241 0.293,1.272 0.793,2.443 1.454,3.484 z"
         fill="none"
         fill-opacity="0.584152"
         stroke="#00000000"
         stroke-opacity="0.584152"
         stroke-width="1"
         fill-rule="evenodd"
         style="stroke-width:3.79003;stroke-dasharray:none" /><path
         id="path_14"
         clip-path="url(#clip_path_14)"
         d="M 4.972,10.24 5.094,10.08 C 9.26,4.601 17.068,3.468 22.535,7.55 c 5.466,4.083 6.52,11.834 2.354,17.314 C 24.325,24.028 23.675,23.285 22.958,22.636 24.942,19.278 25.081,14.995 22.951,11.45 19.842,6.276 13.075,4.633 7.836,7.78 6.716,8.453 5.758,9.29 4.972,10.24 Z"
         fill="none"
         fill-opacity="0.180134"
         stroke="#00000000"
         stroke-opacity="0.180134"
         stroke-width="1"
         fill-rule="evenodd"
         style="stroke-width:3.79003;stroke-dasharray:none" /><path
         id="path_17"
         clip-path="url(#clip_path_17)"
         d="m 23.033,30.273 h 4.545 c 4.282,0 7.752,-3.364 7.752,-7.513 0,-4.15 -3.47,-7.513 -7.752,-7.513 h -6.56 c -2.469,0 -4.472,1.94 -4.472,4.334 v 16.87 z"
         fill="#ffffff"
         stroke="#00000000"
         stroke-width="1"
         style="fill:none;fill-opacity:1;stroke:#000000;stroke-width:1.71923475;stroke-linecap:round;stroke-linejoin:round;stroke-dasharray:none;stroke-opacity:1"
         transform="matrix(2.2044115,0,0,2.2044115,-32.186288,-31.548462)" /></g></g></svg>
